X:1
T:Senyores, el qu'es nascido
T:Pedro de Pastrana (?)
T:Source : Cancionero de Uppsala : Villancicos---Venetia---G.Scotto---1556. Editor : André Vierendeels (12/04/17).
T:Notes : Original clefs : C2, C3, F3 Editorial accidentals above the staff Original note values have been halved Dotted brackets indicate black notes "Villancico de Navidad"
T:Senyores, el qu'es nascido
T:©
T:©
C:Pedro de Pastrana (?)
Z:©
%%score [ 1 [ 2 3 ] ]
L:1/8
Q:1/4=120
M:3/2
K:C
V:1 treble nm="Alto" snm="A"
V:2 treble-8 nm="Tenor 1" snm="T 1"
V:3 treble-8 nm="Tenor 2" snm="T 2"
V:1
 D4 F8 | E8 E4 | F4 G8 | A6 G2 A4 | F4 G8 | A8 A4 :: z12 | A4 G4 E4 | F4 G8 | A4 G6 F2 | D4 E8 | %11
w: Se- nyo-|res, el|ques- na-|sci- do de|Vir- gen|ma- dre,||co- mo pa-|re- çe|a su- *|* pa-|
w: De a|que- sto'el|mun- do'es-|ta'u- fa- no|con la|ma- dre,||de hy- o|de- tan|buen pa- *||
 D8 !fermata!D4 :: F8 F4 | E6 D2 C4 | D4 B,8 | A,8 A,4 | A4 A8 | G8 A4 | D4 E8 | D8 !fermata!D4 :| %20
w: * dre.|A su|ma- dr'en ser|hu- ma-|* no,|pa- re-|sçe yen|ser mo-|der- no.|
w: * dre.|Ya su|pa- dre en|ser e-|ter- no|di- vi-|no Dios|so- be-|ra- no.|
V:2
 d4 d8 | c8 c4 | d4 B8 | A6 B2 c4 | d4 B8 | c8 c4 :: z4 d4 c4 | A4 B4 c4 | d6 c2 d2 e2 | f4 e6 d2 | %10
w: Se- nyo-|res, el|ques na-|sci- do de|Vir- gen|ma- dre,|co- mo|pa- re- sçe|a su pa- *||
w: De a|que- sto'el|mun- do'es-|ta'u- fa- no|con la|ma- dre,|de hy-|o de tan-|buen pa- * *||
"^#" d8 c4 | d8 !fermata!d4 :: A8 B4 | c4 B6 A2 | A8 G4 | A8 A4 | c4 d8 | B4 e6 d2 |"^#" d8 c4 | %19
w: |* dre.|A su|Ma- dr'en ser|hu- ma-|no, pa-|re- sçe|yen ser mo-|der- *|
w: |* dre.|Ya su|pa- dr'en ser|e- ter-|no, di-|vi- *|no Dios so-|be- *|
 d8 !fermata!d4 :| %20
w: * no.|
w: ra- no.|
V:3
 D4 D8 | A8 A4 | D4 E8 | F6 E2 A4 | D4 E8 | A8 A4 :: G4 G4 E4 | F4 G4 A4 | D4 G8 | F4 c8 | _B4 A8 | %11
w: Se- nyo-|res, el|ques na-|sci- do de|Vir- gen|ma- dre,|co- mo pa-|re- sçe a|su pa-|dre, a|su pa-|
w: De- a|que- sto'el|mun- do'es-|ta'u- fa- no|con ma|ma- dre,|de hy- o|de tan buen|pa- *|||
 D8 !fermata!D4 :: D8 D4 | A4 G4 A4 | D4 E8 | F8 D4 | A4 D8 | G8 F4 |"^b" B4 A8 | D8 !fermata!D4 :| %20
w: * dre.|A su|Ma- dr'en ser|hu- ma-|no, pa-|re- sçe|yen ser|mo- der-|* no.|
w: * dre.|Ya su|pa- dr'en ser|e- ter-|no di-|vi- no|Dios so-|be- ra-|* no.|

